static/image/contact/icon_facebook.svg

<svg height="26" viewBox="0 0 15 26" width="15" xmlns="http://www.w3.org/2000/svg"><path d="m38.484375 26.1875v4.125h-2.453125c-.8958378 0-1.4999984.1874981-1.8125.5625s-.46875.9374962-.46875 1.6875v2.953125h4.578125l-.609375 4.625h-3.96875v11.859375h-4.78125v-11.859375h-3.984375v-4.625h3.984375v-3.40625c0-1.9375097.5416613-3.4400988 1.625-4.5078125s2.5260327-1.6015625 4.328125-1.6015625c1.5312577 0 2.7187458.0624994 3.5625.1875z" fill="#fff" fill-rule="evenodd" transform="translate(-24 -26)"/></svg>

<?xml version="1.0" encoding="UTF-8"?>
<svg width="15px" height="26px" viewBox="0 0 15 26" version="1.1" xmlns="http://www.w3.org/2000/svg" xmlns:xlink="http://www.w3.org/1999/xlink">
    <!-- Generator: Sketch 48.2 (47327) - http://www.bohemiancoding.com/sketch -->
    <title>icn_facebook</title>
    <desc>Created with Sketch.</desc>
    <defs></defs>
    <g id="contact_pc" stroke="none" stroke-width="1" fill="none" fill-rule="evenodd" transform="translate(-311.000000, -562.000000)">
        <g id="sec_contact" transform="translate(260.000000, 316.000000)" fill="#FFFFFF">
            <g id="sec_otherContact">
                <g id="contact_block" transform="translate(0.000000, 140.000000)">
                    <g id="sns-caht" transform="translate(27.000000, 40.000000)">
                        <g id="btn_facebook" transform="translate(0.000000, 40.000000)">
                            <path d="M38.484375,26.1875 L38.484375,30.3125 L36.03125,30.3125 C35.1354122,30.3125 34.5312516,30.4999981 34.21875,30.875 C33.9062484,31.2500019 33.75,31.8124962 33.75,32.5625 L33.75,35.515625 L38.328125,35.515625 L37.71875,40.140625 L33.75,40.140625 L33.75,52 L28.96875,52 L28.96875,40.140625 L24.984375,40.140625 L24.984375,35.515625 L28.96875,35.515625 L28.96875,32.109375 C28.96875,30.1718653 29.5104113,28.6692762 30.59375,27.6015625 C31.6770887,26.5338488 33.1197827,26 34.921875,26 C36.4531327,26 37.6406208,26.0624994 38.484375,26.1875 Z" id="icn_facebook"></path>
                        </g>
                    </g>
                </g>
            </g>
        </g>
    </g>
</svg>
